public/images/appleMusic.svg

<?xml version="1.0" encoding="UTF-8"?>
<svg version="1.1" xmlns="http://www.w3.org/2000/svg" width="100%" height="100%" viewBox="0 0 32 32">
<title>apple-music</title>
<path d="M31.995 8.167c0-0.984-0.083-1.964-0.318-2.922-0.422-1.745-1.417-3.078-2.906-4.057-0.766-0.5-1.609-0.807-2.505-0.969-0.688-0.125-1.385-0.182-2.083-0.198-0.052-0.005-0.109-0.016-0.167-0.021h-16.031c-0.203 0.016-0.406 0.026-0.609 0.036-0.995 0.057-1.984 0.161-2.922 0.536-1.781 0.703-3.068 1.932-3.818 3.703-0.26 0.599-0.391 1.234-0.484 1.88-0.078 0.521-0.12 1.047-0.135 1.573 0 0.042-0.010 0.083-0.010 0.125v16.297c0.010 0.188 0.021 0.375 0.031 0.563 0.068 1.089 0.208 2.167 0.667 3.167 0.865 1.891 2.318 3.135 4.313 3.734 0.557 0.172 1.141 0.25 1.724 0.302 0.74 0.073 1.479 0.083 2.219 0.083h14.708c0.698 0 1.396-0.047 2.094-0.135 1.099-0.141 2.13-0.464 3.063-1.078 1.12-0.74 1.964-1.719 2.505-2.943 0.25-0.563 0.391-1.161 0.495-1.766 0.151-0.901 0.182-1.813 0.182-2.724-0.005-5.063 0-10.125-0.005-15.188zM23.432 13.484v7.615c0 0.557-0.078 1.104-0.328 1.609-0.385 0.786-1.010 1.281-1.849 1.521-0.464 0.135-0.943 0.208-1.427 0.229-1.266 0.063-2.365-0.797-2.589-2.047-0.193-1.031 0.302-2.167 1.385-2.698 0.427-0.208 0.891-0.333 1.354-0.427 0.505-0.109 1.010-0.208 1.51-0.323 0.37-0.083 0.609-0.307 0.682-0.688 0.021-0.083 0.026-0.172 0.026-0.255 0-2.422 0-4.844 0-7.26 0-0.083-0.016-0.167-0.036-0.245-0.052-0.203-0.198-0.323-0.406-0.313-0.214 0.010-0.422 0.047-0.63 0.089-1.016 0.198-2.031 0.401-3.042 0.609l-4.932 0.995c-0.021 0.005-0.047 0.016-0.068 0.016-0.37 0.104-0.5 0.271-0.516 0.656-0.005 0.057 0 0.115 0 0.172-0.005 3.469 0 6.938-0.005 10.406 0 0.563-0.063 1.115-0.286 1.635-0.37 0.854-1.026 1.391-1.911 1.646-0.469 0.135-0.948 0.214-1.438 0.229-1.276 0.047-2.339-0.802-2.557-2.057-0.188-1.083 0.307-2.25 1.536-2.771 0.479-0.198 0.974-0.307 1.479-0.411 0.38-0.078 0.766-0.156 1.146-0.234 0.51-0.109 0.776-0.432 0.802-0.953v-0.198c0-3.948 0-7.896 0-11.844 0-0.167 0.021-0.333 0.057-0.495 0.094-0.38 0.365-0.599 0.729-0.688 0.339-0.089 0.688-0.151 1.031-0.224 0.979-0.198 1.953-0.396 2.932-0.589l3.026-0.615c0.896-0.177 1.786-0.359 2.682-0.536 0.292-0.057 0.589-0.12 0.885-0.141 0.411-0.036 0.698 0.224 0.74 0.641 0.010 0.099 0.016 0.198 0.016 0.297 0 2.547 0 5.094 0 7.641z"></path>
</svg>

<?xml version="1.0" encoding="UTF-8" standalone="no"?>
<!DOCTYPE svg PUBLIC "-//W3C//DTD SVG 1.1//EN" "http://www.w3.org/Graphics/SVG/1.1/DTD/svg11.dtd">
<svg width="100%" height="100%" viewBox="0 0 32 32" version="1.1" xmlns="http://www.w3.org/2000/svg" xmlns:xlink="http://www.w3.org/1999/xlink" xml:space="preserve" xmlns:serif="http://www.serif.com/" style="fill-rule:evenodd;clip-rule:evenodd;stroke-linejoin:round;stroke-miterlimit:2;">
    <path d="M31.995,8.167C31.995,7.183 31.912,6.203 31.677,5.245C31.255,3.5 30.26,2.167 28.771,1.188C28.005,0.688 27.162,0.381 26.266,0.219C25.578,0.094 24.881,0.037 24.183,0.021C24.131,0.016 24.074,0.005 24.016,-0L7.985,-0C7.782,0.016 7.579,0.026 7.376,0.036C6.381,0.093 5.392,0.197 4.454,0.572C2.673,1.275 1.386,2.504 0.636,4.275C0.376,4.874 0.245,5.509 0.152,6.155C0.074,6.676 0.032,7.202 0.017,7.728C0.017,7.77 0.007,7.811 0.007,7.853L0.007,24.15C0.017,24.338 0.028,24.525 0.038,24.713C0.106,25.802 0.246,26.88 0.705,27.88C1.57,29.771 3.023,31.015 5.018,31.614C5.575,31.786 6.159,31.864 6.742,31.916C7.482,31.989 8.221,31.999 8.961,31.999L23.669,31.999C24.367,31.999 25.065,31.952 25.763,31.864C26.862,31.723 27.893,31.4 28.826,30.786C29.946,30.046 30.79,29.067 31.331,27.843C31.581,27.28 31.722,26.682 31.826,26.077C31.977,25.176 32.008,24.264 32.008,23.353C32.003,18.29 32.008,13.228 32.003,8.165L31.995,8.167ZM23.432,13.484L23.432,21.099C23.432,21.656 23.354,22.203 23.104,22.708C22.719,23.494 22.094,23.989 21.255,24.229C20.791,24.364 20.312,24.437 19.828,24.458C18.562,24.521 17.463,23.661 17.239,22.411C17.046,21.38 17.541,20.244 18.624,19.713C19.051,19.505 19.515,19.38 19.978,19.286C20.483,19.177 20.988,19.078 21.488,18.963C21.858,18.88 22.097,18.656 22.17,18.275C22.191,18.192 22.196,18.103 22.196,18.02L22.196,10.76C22.196,10.677 22.18,10.593 22.16,10.515C22.108,10.312 21.962,10.192 21.754,10.202C21.54,10.212 21.332,10.249 21.124,10.291C20.108,10.489 19.093,10.692 18.082,10.9L13.15,11.895C13.129,11.9 13.103,11.911 13.082,11.911C12.712,12.015 12.582,12.182 12.566,12.567C12.561,12.624 12.566,12.682 12.566,12.739C12.561,16.208 12.566,19.677 12.561,23.145C12.561,23.708 12.498,24.26 12.275,24.78C11.905,25.634 11.249,26.171 10.364,26.426C9.895,26.561 9.416,26.64 8.926,26.655C7.65,26.702 6.587,25.853 6.369,24.598C6.181,23.515 6.676,22.348 7.905,21.827C8.384,21.629 8.879,21.52 9.384,21.416C9.764,21.338 10.15,21.26 10.53,21.182C11.04,21.073 11.306,20.75 11.332,20.229L11.332,8.187C11.332,8.02 11.353,7.854 11.389,7.692C11.483,7.312 11.754,7.093 12.118,7.004C12.457,6.915 12.806,6.853 13.149,6.78C14.128,6.582 15.102,6.384 16.081,6.191L19.107,5.576C20.003,5.399 20.893,5.217 21.789,5.04C22.081,4.983 22.378,4.92 22.674,4.899C23.085,4.863 23.372,5.123 23.414,5.54C23.424,5.639 23.43,5.738 23.43,5.837L23.43,13.478L23.432,13.484Z" style="fill:url(#_Linear1);fill-rule:nonzero;"/>
    <defs>
        <linearGradient id="_Linear1" x1="0" y1="0" x2="1" y2="0" gradientUnits="userSpaceOnUse" gradientTransform="matrix(29.6589,29.8687,-29.8668,29.657,1.05081,1.28178)"><stop offset="0" style="stop-color:rgb(255,0,130);stop-opacity:1"/><stop offset="0.24" style="stop-color:rgb(255,0,140);stop-opacity:1"/><stop offset="0.49" style="stop-color:rgb(255,0,169);stop-opacity:1"/><stop offset="1" style="stop-color:rgb(255,0,66);stop-opacity:1"/></linearGradient>
    </defs>
</svg>
